X:1
T:O Come, All Ye Faithful
C:Oakley/Reading
Q:140
S:Ted Neil <ted.neil@amd.com> abcusers 2002-12-15
V:1 program 1 40 volume 75
V:2 program 1 68 volume 128
V:3 clef=tenor
M:4/4
L:1/4
K:G
[V:1] "G"z3 "_Melody"G | "G"G2  D G | "D"A2 D2 | "G"B "D"A "G"B "C"c | "G"B2 "D"A G | "Em"G2 "D"F "A"E |
[V:2]    z3   "_Alto"D |    D2 B, D |    D2 F2 |    G    F    G    A |    G2    F D |     D2    C   B, |
[V:3]    z3  "_Tenor"B |    B2  G B |    d2 F2 |    d    c    d    e |    d2    c B |     B2    A    G |
%
[V:1] "G"F G "D"A "G"B | "D"F2 "A7"E>D | "D"D3 "D7"z | "G"d2 "C"c "G"B | "Am"c2 "Em"B2 | "Am"A "Em"B "C"G "Am"A |
[V:2]    D D    F    G |    D2    ^C>D |    D3     z |    B2    A    G |     G2     F2 |     F     G    E     F |
[V:3]    A B    c    d |    A2     G>F |    F3     z |    g2    f    e |     e2     d2 |     c     d    B     c |
%
[V:1] "D7"F>E  D  G | "G"G "D"F "G"G "D"A | "G"G2  D B | "G"B "D"A "G"B "C"c | "G"B2 "D7"A B |
[V:2]     D>C  B, D |    D    C    D    E |    D2 B, G |    G    F    G    A |    G2     F G |
[V:3]     B>A  G  B |    B    A    B    c |    B2  G d |    d    c    d    e |    d2     c d |
%
[V:1] "Am"c "Em"B "C"A "G"G | "D"F2 "G"G "C"c | "G"B2 "D7"A>G | "G"G3 z |]
[V:2]     A     G    F    D |    C2    E    G |    G2     F>D |    D3 z |]
[V:3]     e     d    c    B |    A2    c    e |    e2     d>B |    B3 z |]
%
